juniorguru/images/logos/lundegaard.svg

<?xml version="1.0" encoding="UTF-8"?>
<svg width="213px" height="50px" viewBox="0 0 213 50" version="1.1" xmlns="http://www.w3.org/2000/svg" xmlns:xlink="http://www.w3.org/1999/xlink"><!--Generator: Sketch 62 (91390) - https://sketch.com--><title>Combined Shape</title><desc>Created with Sketch.</desc><defs><linearGradient x1="-1.42108547e-12%" y1="50%" x2="100%" y2="50%" id="linearGradient-1"><stop stop-color="#18C872" offset="0%"/><stop stop-color="#006DFF" offset="100%"/></linearGradient></defs><g id="07_Lundeweb" stroke="none" stroke-width="1" fill="none" fill-rule="evenodd"><g id="404" transform="translate(-30.000000, -33.000000)" fill="url(#linearGradient-1)"><path d="M155.791362,43.6382979 C160.181161,43.6382979 163.125,46.6760119 163.125,51.2084741 L163.125,51.2084741 L163.125,57.2490784 C163.125,61.7788618 160.181161,64.8165759 155.791362,64.8165759 L155.791362,64.8165759 L148.642038,64.8246122 L148.642038,66.300609 C148.642038,67.2676414 149.11191,67.741782 150.043867,67.741782 L150.043867,67.741782 L155.609644,67.741782 C159.950119,67.741782 162.893958,70.7741385 162.893958,75.303922 L162.893958,75.303922 L162.893958,75.7807413 C162.740795,80.1149753 159.84628,83 155.570704,83 L155.570704,83 L143.211252,83 L143.211252,76.9701108 L154.86979,76.9701108 C155.74723,76.9701108 156.204122,76.5468667 156.26383,75.705736 L156.26383,75.705736 L156.26383,74.7413824 C156.26383,73.7797075 155.79915,73.2921731 154.864598,73.2921731 L154.864598,73.2921731 L149.072971,73.2921731 C144.727303,73.2921731 141.825,70.2464228 141.825,65.7139605 L141.825,65.7139605 L141.825,51.2084741 C141.825,46.6760119 144.810375,43.6382979 149.156042,43.6382979 L149.156042,43.6382979 Z M243,33 L243,61.4972496 C243,66.0928792 240.050049,69.1702128 235.695359,69.1702128 L235.695359,69.1702128 L229.046263,69.1702128 C224.649951,69.1702128 221.7,66.0928792 221.7,61.4972496 L221.7,61.4972496 L221.7,51.4286922 C221.7,46.8330625 224.649951,43.7530129 229.046263,43.7530129 L229.046263,43.7530129 L236.21043,43.7530129 L236.21043,33 L243,33 Z M220.635,43.6382979 L220.635,49.767265 L215.584201,49.767265 C214.584098,49.767265 214.075666,50.2575823 214.075666,51.2382171 L214.075666,51.2382171 L214.075666,69.1702128 L206.79,69.1702128 L206.79,51.3362805 C206.79,46.7272973 209.95513,43.6382979 214.681873,43.6382979 L214.681873,43.6382979 L220.635,43.6382979 Z M180.165,53.212766 L180.165,59.043101 L173.184624,59.0459148 C172.235376,59.0459148 171.765997,59.5524111 171.765997,60.5654037 L171.765997,60.5654037 L171.765997,61.5108634 C171.826308,62.394418 172.287821,62.8390092 173.174135,62.8390092 L173.174135,62.8390092 L180.165,62.8390092 L180.165,69.1702128 L172.657555,69.1702128 C168.338743,69.1702128 165.417578,66.1424905 165.262867,61.5924656 L165.262867,61.5924656 L165.255,61.5924656 L165.255,61.1535021 C165.255,56.3924371 168.231231,53.212766 172.618222,53.212766 L172.618222,53.212766 L180.165,53.212766 Z M195.221865,43.6382979 C199.577087,43.6382979 202.53,46.7325793 202.53,51.3467151 L202.53,51.3467151 L202.53,69.1702128 L188.571957,69.1702128 C184.289582,69.1702128 181.391305,66.2341926 181.237805,61.8219765 L181.237805,61.8219765 L181.23,61.8219765 L181.23,61.3963081 C181.23,56.7794438 184.180311,53.6960769 188.532931,53.6960769 L188.532931,53.6960769 L195.736999,53.6960769 L195.736999,51.2512125 C195.736999,50.2661723 195.268695,49.7777452 194.33469,49.7777452 L194.33469,49.7777452 L183.103214,49.7777452 L183.103214,43.6382979 Z M132.458379,43.6382979 C136.790105,43.6382979 139.695,46.7322487 139.695,51.3486197 L139.695,51.3486197 L139.695,59.1025951 L125.075746,59.1025951 L125.075746,61.56084 C125.075746,62.5430466 125.539402,63.0341499 126.46159,63.0341499 L126.46159,63.0341499 L137.433076,63.0341499 L137.433076,69.1702128 L125.585511,69.1702128 C121.294771,69.1702128 118.395,66.0789903 118.395,61.4626193 L118.395,61.4626193 L118.395,51.3486197 C118.395,46.7322487 121.294771,43.6382979 125.585511,43.6382979 L125.585511,43.6382979 Z M116.265,33 L116.265,69.1702128 L102.314762,69.1702128 C97.9127098,69.1702128 94.965,66.0903944 94.965,61.4951098 L94.965,61.4951098 L94.965,51.4273084 C94.965,46.8347397 97.9127098,43.7549214 102.314762,43.7549214 L102.314762,43.7549214 L109.477202,43.7549214 L109.477202,33 L116.265,33 Z M84.4662511,43.6382979 C88.8204091,43.6382979 91.77,46.7272973 91.77,51.3362805 L91.77,51.3362805 L91.77,69.1702128 L84.981259,69.1702128 L84.981259,51.2382171 C84.981259,50.2575823 84.51307,49.767265 83.5766919,49.767265 L83.5766919,49.767265 L78.6633081,49.767265 C77.72693,49.767265 77.2561399,50.2575823 77.2561399,51.2382171 L77.2561399,51.2382171 L77.2561399,69.1702128 L70.47,69.1702128 L70.47,51.3362805 C70.47,46.7272973 73.4195909,43.6382979 77.8205678,43.6382979 L77.8205678,43.6382979 Z M52.763741,43.6382979 L52.763741,61.5702936 C52.763741,62.5509283 53.23193,63.0412457 54.1683081,63.0412457 L54.1683081,63.0412457 L59.084293,63.0412457 C60.01807,63.0412457 60.486259,62.5509283 60.486259,61.5702936 L60.486259,61.5702936 L60.486259,43.6382979 L67.275,43.6382979 L67.275,61.4722301 C67.275,66.0812134 64.3280101,69.1702128 59.9244322,69.1702128 L59.9244322,69.1702128 L53.2787489,69.1702128 C48.9245909,69.1702128 45.975,66.0812134 45.975,61.4722301 L45.975,61.4722301 L45.975,43.6382979 L52.763741,43.6382979 Z M37.376087,33 L37.3732609,61.5940196 C37.3732609,62.5715929 37.8819565,63.063095 38.8993478,63.063095 L38.8993478,63.063095 L43.845,63.063095 L43.845,69.1702128 L37.9865217,69.1702128 C33.2047826,69.1702128 30,66.0908568 30,61.4989777 L30,61.4989777 L30,33 L37.376087,33 Z M109.485007,49.8629562 L103.155106,49.8656721 C102.221101,49.8656721 101.752798,50.3518163 101.752798,51.3322523 L101.752798,51.3322523 L101.752798,61.5955977 C101.752798,62.5706019 102.221101,63.0676097 103.155106,63.0676097 L103.155106,63.0676097 L109.485007,63.0676097 L109.485007,49.8629562 Z M236.213031,49.8642225 L229.889106,49.8642225 C228.952614,49.8642225 228.486969,50.3531193 228.486969,51.3309128 L228.486969,51.3309128 L228.486969,61.5950289 C228.486969,62.5728225 228.952614,63.0535709 229.889106,63.0535709 L229.889106,63.0535709 L235.078835,63.0535709 C235.83063,62.9612238 236.213031,62.4696109 236.213031,61.5950289 L236.213031,61.5950289 L236.213031,49.8642225 Z M195.739601,59.3498257 L189.089692,59.3525544 C188.155687,59.3525544 187.689985,59.8437101 187.689985,60.8260217 L187.689985,60.8260217 L187.689985,61.7428458 C187.747222,62.5996398 188.207721,63.0307655 189.084489,63.0307655 L189.084489,63.0307655 L195.739601,63.0307655 L195.739601,59.3498257 Z M154.950265,49.6655083 L150.043867,49.6655083 C149.11191,49.6655083 148.64723,50.1476851 148.64723,51.1120388 L148.64723,51.1120388 L148.64723,58.7866867 L154.950265,58.7866867 C155.884817,58.7866867 156.352093,58.3071886 156.352093,57.3455137 L156.352093,57.3455137 L156.352093,51.1120388 C156.352093,50.1476851 155.884817,49.6655083 154.950265,49.6655083 L154.950265,49.6655083 Z M131.62841,49.7770891 L126.46159,49.7770891 C125.539402,49.7770891 125.075746,50.2681924 125.075746,51.250399 L125.075746,51.250399 L125.075746,53.4603639 L133.011693,53.4603639 L133.011693,51.250399 C133.011693,50.2681924 132.548037,49.7770891 131.62841,49.7770891 L131.62841,49.7770891 Z M180.165,43.6382979 L180.165,50.0212766 L166.32,50.0212766 L166.32,43.6382979 L180.165,43.6382979 Z" id="Combined-Shape" transform="translate(136.500000, 58.000000) rotate(-360.000000) translate(-136.500000, -58.000000) "/></g></g></svg>

<?xml version="1.0" encoding="UTF-8"?>
<svg width="213px" height="50px" version="1.1" viewBox="0 0 213 50" xmlns="http://www.w3.org/2000/svg">
 <!--Generator: Sketch 62 (91390) - https://sketch.com-->
 <title>Combined Shape</title>
 <desc>Created with Sketch.</desc>
 <defs>
  <linearGradient id="linearGradient-1" x1="-1.4211e-12%" y1="50%" y2="50%">
   <stop stop-color="#18C872" offset="0"/>
   <stop stop-color="#006DFF" offset="1"/>
  </linearGradient>
 </defs>
 <g id="07_Lundeweb" fill="none" fill-rule="evenodd">
  <g id="404" transform="translate(-30 -33)" fill="url(#linearGradient-1)">
   <path id="Combined-Shape" transform="translate(136.5 58) translate(-136.5 -58)" d="m155.79 43.638c4.3898 0 7.3336 3.0377 7.3336 7.5702v6.0406c0 4.5298-2.9438 7.5675-7.3336 7.5675l-7.1493 0.0080363v1.476c0 0.96703 0.46987 1.4412 1.4018 1.4412h5.5658c4.3405 0 7.2843 3.0324 7.2843 7.5621v0.47682c-0.15316 4.3342-3.0477 7.2193-7.3233 7.2193h-12.359v-6.0299h11.659c0.87744 0 1.3343-0.42324 1.394-1.2644v-0.96435c0-0.96167-0.46468-1.4492-1.3992-1.4492h-5.7916c-4.3457 0-7.248-3.0458-7.248-7.5782v-14.505c0-4.5325 2.9854-7.5702 7.331-7.5702zm87.209-10.638v28.497c0 4.5956-2.95 7.673-7.3046 7.673h-6.6491c-4.3963 0-7.3463-3.0773-7.3463-7.673v-10.069c0-4.5956 2.95-7.6757 7.3463-7.6757h7.1642v-10.753h6.7896zm-22.365 10.638v6.129h-5.0508c-1.0001 0-1.5085 0.49032-1.5085 1.471v17.932h-7.2857v-17.834c0-4.609 3.1651-7.698 7.8919-7.698h5.9531zm-40.47 9.5745v5.8303l-6.9804 0.0028138c-0.94925 0-1.4186 0.5065-1.4186 1.5195v0.94546c0.060311 0.88355 0.52182 1.3281 1.4081 1.3281h6.9909v6.3312h-7.5074c-4.3188 0-7.24-3.0277-7.3947-7.5777h-0.007867v-0.43896c0-4.7611 2.9762-7.9407 7.3632-7.9407h7.5468zm15.057-9.5745c4.3552 0 7.3081 3.0943 7.3081 7.7084v17.823h-13.958c-4.2824 0-7.1807-2.936-7.3342-7.3482h-0.007805v-0.42567c0-4.6169 2.9503-7.7002 7.3029-7.7002h7.2041v-2.4449c0-0.98504-0.4683-1.4735-1.4023-1.4735h-11.231v-6.1394zm-62.763 0c4.3317 0 7.2366 3.094 7.2366 7.7103v7.754h-14.619v2.4582c0 0.98221 0.46366 1.4733 1.3858 1.4733h10.971v6.1361h-11.848c-4.2907 0-7.1905-3.0912-7.1905-7.7076v-10.114c0-4.6164 2.8998-7.7103 7.1905-7.7103zm-16.193-10.638v36.17h-13.95c-4.4021 0-7.3498-3.0798-7.3498-7.6751v-10.068c0-4.5926 2.9477-7.6724 7.3498-7.6724h7.1624v-10.755h6.7878zm-31.799 10.638c4.3542 0 7.3037 3.089 7.3037 7.698v17.834h-6.7887v-17.932c0-0.98063-0.46819-1.471-1.4046-1.471h-4.9134c-0.93638 0-1.4072 0.49032-1.4072 1.471v17.932h-6.7861v-17.834c0-4.609 2.9496-7.698 7.3506-7.698zm-31.703 0v17.932c0 0.98063 0.46819 1.471 1.4046 1.471h4.916c0.93378 0 1.402-0.49032 1.402-1.471v-17.932h6.7887v17.834c0 4.609-2.947 7.698-7.3506 7.698h-6.6457c-4.3542 0-7.3037-3.089-7.3037-7.698v-17.834h6.7887zm-15.388-10.638-0.0028261 28.594c0 0.97757 0.5087 1.4691 1.5261 1.4691h4.9457v6.1071h-5.8585c-4.7817 0-7.9865-3.0794-7.9865-7.6712v-28.499h7.3761zm72.109 16.863-6.3299 0.0027159c-0.934 0-1.4023 0.48614-1.4023 1.4666v10.263c0 0.975 0.4683 1.472 1.4023 1.472h6.3299v-13.205zm126.73 0.0012663h-6.3239c-0.93649 0-1.4021 0.4889-1.4021 1.4667v10.264c0 0.97779 0.46564 1.4585 1.4021 1.4585h5.1897c0.7518-0.092347 1.1342-0.58396 1.1342-1.4585v-11.731zm-40.473 9.4856-6.6499 0.0027287c-0.934 0-1.3997 0.49116-1.3997 1.4735v0.91682c0.057237 0.85679 0.51774 1.2879 1.3945 1.2879h6.6551v-3.6809zm-40.789-9.6843h-4.9064c-0.93196 0-1.3966 0.48218-1.3966 1.4465v7.6746h6.303c0.93455 0 1.4018-0.4795 1.4018-1.4412v-6.2335c0-0.96435-0.46728-1.4465-1.4018-1.4465zm-23.322 0.11158h-5.1668c-0.92219 0-1.3858 0.4911-1.3858 1.4733v2.21h7.9359v-2.21c0-0.98221-0.46366-1.4733-1.3833-1.4733zm48.537-6.1388v6.383h-13.845v-6.383h13.845z"/>
  </g>
 </g>
</svg>
